assets/src/edit-story/icons/external.svg

<svg fill="none" height="16" viewBox="0 0 16 16" width="16" xmlns="http://www.w3.org/2000/svg"><path d="m8.17139 2.66669h-4.50537c-.55229 0-1 .44771-1 1v8.66671c0 .5522.44771 1 1 1h8.66668c.5523 0 1-.4478 1-1v-3.66671" stroke="#000" stroke-width="2"/><path d="m10.2346 1.99639 1.4142 1.41421-3.30455 3.30455.94281.9428 3.30454-3.30454 1.4142 1.41421-.0047-3.76652z" fill="#000"/></svg>

<?xml version="1.0" encoding="UTF-8"?>
<svg width="16px" height="16px"  viewBox="0 0 16 16" fill="none" xmlns="http://www.w3.org/2000/svg">
<path d="M8.17139 2.66669H3.66602C3.11373 2.66669 2.66602 3.1144 2.66602 3.66669V12.3334C2.66602 12.8856 3.11373 13.3334 3.66602 13.3334H12.3327C12.885 13.3334 13.3327 12.8856 13.3327 12.3334V8.66669" stroke="#000000" stroke-width="2"/>
<path d="M10.2346 1.99639L11.6488 3.4106L8.34425 6.71515L9.28706 7.65795L12.5916 4.35341L14.0058 5.76762L14.0011 2.0011L10.2346 1.99639Z" fill="#000000"/>
</svg>
